brandFactory_export/3.Masa/Libreria digital_3Masa.svg

<?xml version="1.0" encoding="UTF-8"?>
<svg width="24px" height="24px" viewBox="0 0 24 24" version="1.1" xmlns="http://www.w3.org/2000/svg" xmlns:xlink="http://www.w3.org/1999/xlink">
    <title>3.Masa/Libreria digital_3Masa</title>
    <g id="Symbols" stroke="none" stroke-width="1" fill="none" fill-rule="evenodd">
        <g id="3.Masa/Libreria-digital_3Masa" fill="#5CB615" fill-rule="nonzero">
            <path d="M13.5495798,18.6756303 C11.2403361,18.7831933 9.34453782,19.3848739 8.23529412,19.8252101 L8.23529412,11.2436975 C10.2285714,10.2722689 12.4638655,10.1310924 13.5495798,10.1277311 L13.5495798,18.6756303 Z M6.78991597,19.8218487 C5.09243697,19.1529412 3.29747899,18.7630252 1.4789916,18.6722689 L1.4789916,10.1310924 C2.05042017,10.1344538 2.94117647,10.1781513 3.94621849,10.3563025 C4.16806723,10.3966387 4.39327731,10.4403361 4.62184874,10.4941176 C4.65546218,10.5008403 4.68907563,10.5142857 4.72268908,10.5210084 C4.92436975,10.5714286 5.12605042,10.6218487 5.33109244,10.6857143 C5.42521008,10.7159664 5.52268908,10.7495798 5.62016807,10.7831933 C5.76806723,10.8302521 5.91260504,10.8773109 6.0605042,10.9344538 C6.30588235,11.0285714 6.5512605,11.1327731 6.79327731,11.2504202 L6.78991597,19.8218487 L6.78991597,19.8218487 Z M19.8689076,16.0571429 C21.0789916,16.0571429 22.0336134,15.697479 22.6957983,14.9882353 C23.3310924,14.3092437 23.6571429,13.3579832 23.6571429,12.1579832 L23.6571429,5.88907563 C23.6571429,4.68907563 23.3310924,3.74117647 22.692437,3.06890756 C22.0302521,2.3697479 21.0823529,2.02016807 19.8689076,2.02016807 L6.9210084,2.02689076 C5.70756303,2.02689076 4.75966387,2.37983193 4.09747899,3.07563025 C3.45882353,3.7512605 3.13277311,4.69915966 3.13277311,5.89915966 L3.13277311,8.73613445 C1.76806723,8.58823529 0.779831933,8.65882353 0.699159664,8.66554622 C0.315966387,8.69915966 0.0268907563,9.02184874 0.0334985564,9.40504202 L0.0334985564,19.4016807 C0.0334985564,19.8117647 0.356302521,20.1445378 0.756302521,20.1445378 C4.39327731,20.1445378 7.15294118,21.6 7.17983193,21.6168067 C7.28403361,21.6739496 7.39831933,21.7008403 7.51596639,21.7042017 C7.52605042,21.7042017 7.53277311,21.697479 7.54285714,21.697479 C7.65042017,21.6941176 7.75462185,21.6672269 7.85210084,21.6201681 C7.8789916,21.6067227 10.6184874,20.1478992 14.2756303,20.1478992 C14.6789916,20.1411765 15.005042,19.8084034 14.9983193,19.405042 L14.9983193,18.4806723 L22.9378151,18.4806723 C23.3411765,18.4739496 23.6672269,18.1411765 23.6606074,17.7378151 C23.6672269,17.3344538 23.3445378,16.9983193 22.9378151,16.994958 L14.994958,16.994958 L14.994958,16.0638655 L19.8689076,16.0571429 L19.8689076,16.0571429 Z" id="Libreria-digital_3Masa"></path>
        </g>
    </g>
</svg>

<svg width="24" height="24" viewBox="0 0 24 24" xmlns="http://www.w3.org/2000/svg"><path d="M13.55 18.676a16.74 16.74 0 00-5.315 1.15v-8.582c1.994-.972 4.229-1.113 5.315-1.116v8.548zm-6.76 1.146a16.774 16.774 0 00-5.311-1.15v-8.54c.571.002 1.462.046 2.467.224.222.04.447.084.676.138.033.007.067.02.1.027.202.05.404.1.61.165.093.03.19.064.288.097.148.047.293.094.44.151.246.095.491.199.733.316l-.003 8.572zm13.079-3.765c1.21 0 2.165-.36 2.827-1.069.635-.679.961-1.63.961-2.83V5.889c0-1.2-.326-2.148-.965-2.82-.662-.7-1.61-1.049-2.823-1.049L6.92 2.027c-1.213 0-2.161.353-2.824 1.049-.638.675-.964 1.623-.964 2.823v2.837C1.768 8.588.78 8.66.699 8.666a.728.728 0 00-.666.739v9.997c0 .41.323.743.723.743 3.637 0 6.397 1.455 6.424 1.472a.736.736 0 00.336.087c.01 0 .017-.007.027-.007a.764.764 0 00.31-.077c.026-.013 2.765-1.472 6.423-1.472a.735.735 0 00.722-.743v-.924h7.94a.735.735 0 00.723-.743.73.73 0 00-.723-.743h-7.943v-.931l4.874-.007z" fill="#5CB615" fill-rule="nonzero"/></svg>
